X: 082
T: the Comet
%R: jig
Z: 2018 John Chambers <jc:trillian.mit.edu>
B: Bland and Weller "Country Dances for the Year 1798" p.8 #2
M: 6/8
L: 1/8
K: D
% - - - - - - - - - - - - - - - - - - - - - - - - -
D |\
F2A AFA | B2d dBd | F2A AFD |\
E3 A,3 | F2A AFA | B2d dBd | fdf ecA | d3 D2 :|
|: d |\
f2a afa | c2e ece | F2G AFD | E3 A,2d |\
f2a afa | bag fga | ged cBc | d3 D2 :|
% - - - - - - - - - - - - - - - - - - - - - - - - -
%%begintext align
%%  Cast off two Couple & up again .| change
%% sides and back again .|. Down the middle
%% up again :|. Hands 6 round .:|:.
%%endtext
% - - - - - - - - - - - - - - - - - - - - - - - - -
